app/assets/images/cat-with-hat.svg

<svg xmlns="http://www.w3.org/2000/svg" width="689" height="630" fill="none"><path fill="#72bf78" fill-rule="evenodd" d="M344.003 204.066c-47.369 0-52.093 4.892-76.608 4.892-20.429 0-81.717-48.958-112.36-48.958s-66.394 17.625-66.394 68.542v58.75c.062 15.422 5.785 62.695 28.183 50.061-26.48 30.644-29.156 66.376-28.792 100.968-7.132 2.018-14.409 4.293-21.471 6.656-21.885 7.329-45.094 16.672-55.579 23.302-11.134 7.041-14.331 21.589-7.14 32.49 7.19 10.904 22.047 14.034 33.181 6.993 5-3.161 23.08-10.951 45.067-18.311 2.43-.814 4.864-1.607 7.285-2.375 1.481 13.593 5.156 26.001 10.618 37.306l-.755.388c-13.11 6.784-25.276 14.573-33.034 19.54-1.342.858-2.552 1.632-3.612 2.303-11.135 7.04-14.332 21.588-7.14 32.489 7.19 10.904 22.046 14.034 33.18 6.994 1.317-.834 2.719-1.73 4.199-2.676 7.851-5.017 17.889-11.434 28.833-17.096a174.178 174.178 0 0 1 7.397-3.615C184.431 613.544 283.837 630 344.003 630c60.163 0 159.571-16.456 214.941-67.291a174.144 174.144 0 0 1 7.395 3.615c10.944 5.662 20.983 12.079 28.832 17.096 1.482.946 2.883 1.842 4.199 2.676 11.136 7.04 25.99 3.91 33.184-6.994 7.19-10.901 3.993-25.449-7.143-32.489-1.059-.671-2.269-1.445-3.613-2.303-7.756-4.967-19.923-12.756-33.033-19.54l-.752-.388c5.462-11.309 9.136-23.713 10.617-37.309 2.426.768 4.864 1.56 7.296 2.378 21.988 7.36 40.071 15.15 45.069 18.311 11.133 7.041 25.991 3.911 33.181-6.993 7.19-10.901 3.994-25.449-7.139-32.49-10.487-6.63-33.696-15.973-55.581-23.302a481.444 481.444 0 0 0-21.482-6.659c.362-34.592-2.313-70.321-28.793-100.965 22.4 12.634 28.121-34.639 28.185-50.061v-58.747c0-50.917-35.753-68.542-66.396-68.542-30.644 0-91.93 48.955-112.359 48.955-24.515 0-29.235-4.892-76.608-4.892Zm-21.619 288.08c6.483-2.162 14.134-3.146 21.619-3.146 7.485 0 15.136.984 21.619 3.146 3.181 1.059 7.072 2.732 10.496 5.433 3.44 2.71 7.885 7.733 7.885 14.921s-4.445 12.211-7.885 14.921c-3.424 2.701-7.315 4.374-10.496 5.433-6.483 2.162-14.134 3.146-21.619 3.146-7.485 0-15.136-.984-21.619-3.146-3.181-1.059-7.072-2.732-10.499-5.433-3.44-2.71-7.882-7.733-7.882-14.921s4.442-12.211 7.882-14.921c3.427-2.701 7.318-4.374 10.499-5.433Zm91.059-97.13c4.368-7.157 12.989-15.683 25.92-15.683 12.931 0 21.552 8.526 25.917 15.683 4.554 7.463 6.723 16.509 6.723 25.442s-2.169 17.979-6.723 25.443c-4.365 7.157-12.986 15.682-25.917 15.682-12.931 0-21.552-8.525-25.92-15.682-4.553-7.464-6.72-16.51-6.72-25.443s2.167-17.979 6.72-25.442Zm-190.718 0c4.366-7.157 12.987-15.683 25.918-15.683 12.932 0 21.553 8.526 25.918 15.683 4.554 7.463 6.722 16.509 6.722 25.442s-2.168 17.979-6.722 25.443c-4.365 7.157-12.986 15.682-25.918 15.682-12.931 0-21.552-8.525-25.918-15.682-4.554-7.464-6.722-16.51-6.722-25.443s2.168-17.979 6.722-25.442Z" clip-rule="evenodd"/><path fill="#fff" d="M214 188h252v63l-126 23-121-28-5-58Z"/><path fill="#72bf78" d="M445.274 92.4c5.511 2.4 11.023 3.6 17.636 3.6C487.16 96 507 74.4 507 48S487.16 0 462.91 0c-20.942 0-39.681 16.8-42.987 38.4-23.148-1.2-46.295-7.2-67.237-19.2-12.125-6-24.25-7.2-36.374-2.4-14.33 6-24.25 16.8-30.863 31.2l-50.704 121.2c-5.511 1.2-9.92 3.6-14.329 6-11.022 7.2-18.738 20.4-20.942 36-3.307 26.4 11.022 51.6 33.067 57.6l24.249 7.2c27.556 8.4 56.215 12 84.873 12 28.659 0 57.317-3.6 84.873-12l24.249-7.2c23.148-6 37.477-31.2 33.068-57.6-2.205-14.4-9.92-27.6-20.943-36-4.409-2.4-8.818-4.8-13.227-6L418.82 114c9.921-6 18.739-13.2 26.454-21.6ZM462.91 24c12.125 0 22.045 10.8 22.045 24s-9.92 24-22.045 24c-12.125 0-22.045-10.8-22.045-24s9.92-24 22.045-24Zm0 190.8c2.205 14.4-5.511 27.6-17.636 31.2l-24.249 7.2c-51.806 14.4-106.918 14.4-158.723 0l-24.25-7.2c-12.125-3.6-19.84-16.8-17.636-31.2 1.102-8.4 5.511-14.4 11.023-19.2 4.409-2.4 7.715-3.6 12.124-3.6 2.205 0 4.409 0 5.512 1.2 60.623 19.2 123.451 19.2 184.075 0 6.613-2.4 12.124-1.2 17.635 2.4 6.614 4.8 11.023 10.8 12.125 19.2Z"/></svg>

<svg width="689" height="630" viewBox="0 0 689 630" fill="none" xmlns="http://www.w3.org/2000/svg">
<path fill-rule="evenodd" clip-rule="evenodd" d="M344.003 204.066C296.634 204.066 291.91 208.958 267.395 208.958C246.966 208.958 185.678 160 155.035 160C124.392 160 88.6413 177.625 88.6413 228.542V287.292C88.703 302.714 94.4259 349.987 116.824 337.353C90.3434 367.997 87.6681 403.729 88.032 438.321C80.8998 440.339 73.623 442.614 66.5609 444.977C44.6765 452.306 21.4672 461.649 10.9824 468.279C-0.1523 475.32 -3.34916 489.868 3.84191 500.769C11.0329 511.673 25.8889 514.803 37.0233 507.762C42.0224 504.601 60.1033 496.811 82.0902 489.451C84.5197 488.637 86.9539 487.844 89.3753 487.076C90.856 500.669 94.5306 513.077 99.993 524.382L99.2384 524.77C86.1274 531.554 73.9616 539.343 66.2045 544.31C64.8621 545.168 63.6518 545.942 62.5917 546.613C51.4569 553.653 48.2601 568.201 55.4512 579.102C62.6422 590.006 77.4982 593.136 88.6329 586.096C89.9488 585.262 91.351 584.366 92.831 583.42C100.682 578.403 110.72 571.986 121.664 566.324C124.23 564.996 126.699 563.793 129.061 562.709C184.431 613.544 283.837 630 344.003 630C404.166 630 503.574 613.544 558.944 562.709C561.306 563.793 563.773 564.996 566.339 566.324C577.283 571.986 587.322 578.403 595.171 583.42C596.653 584.366 598.054 585.262 599.37 586.096C610.506 593.136 625.36 590.006 632.554 579.102C639.744 568.201 636.547 553.653 625.411 546.613C624.352 545.942 623.142 545.168 621.798 544.31C614.042 539.343 601.875 531.554 588.765 524.77L588.013 524.382C593.475 513.073 597.149 500.669 598.63 487.073C601.056 487.841 603.494 488.633 605.926 489.451C627.914 496.811 645.997 504.601 650.995 507.762C662.128 514.803 676.986 511.673 684.176 500.769C691.366 489.868 688.17 475.32 677.037 468.279C666.55 461.649 643.341 452.306 621.456 444.977C614.39 442.611 607.11 440.339 599.974 438.318C600.336 403.726 597.661 367.997 571.181 337.353C593.581 349.987 599.302 302.714 599.366 287.292V228.545C599.366 177.628 563.613 160.003 532.97 160.003C502.326 160.003 441.04 208.958 420.611 208.958C396.096 208.958 391.376 204.066 344.003 204.066ZM322.384 492.146C328.867 489.984 336.518 489 344.003 489C351.488 489 359.139 489.984 365.622 492.146C368.803 493.205 372.694 494.878 376.118 497.579C379.558 500.289 384.003 505.312 384.003 512.5C384.003 519.688 379.558 524.711 376.118 527.421C372.694 530.122 368.803 531.795 365.622 532.854C359.139 535.016 351.488 536 344.003 536C336.518 536 328.867 535.016 322.384 532.854C319.203 531.795 315.312 530.122 311.885 527.421C308.445 524.711 304.003 519.688 304.003 512.5C304.003 505.312 308.445 500.289 311.885 497.579C315.312 494.878 319.203 493.205 322.384 492.146ZM413.443 395.016C417.811 387.859 426.432 379.333 439.363 379.333C452.294 379.333 460.915 387.859 465.28 395.016C469.834 402.479 472.003 411.525 472.003 420.458C472.003 429.391 469.834 438.437 465.28 445.901C460.915 453.058 452.294 461.583 439.363 461.583C426.432 461.583 417.811 453.058 413.443 445.901C408.89 438.437 406.723 429.391 406.723 420.458C406.723 411.525 408.89 402.479 413.443 395.016ZM222.725 395.016C227.091 387.859 235.712 379.333 248.643 379.333C261.575 379.333 270.196 387.859 274.561 395.016C279.115 402.479 281.283 411.525 281.283 420.458C281.283 429.391 279.115 438.437 274.561 445.901C270.196 453.058 261.575 461.583 248.643 461.583C235.712 461.583 227.091 453.058 222.725 445.901C218.171 438.437 216.003 429.391 216.003 420.458C216.003 411.525 218.171 402.479 222.725 395.016Z" fill="#72bf78"/>
<path d="M214 188H466V251L340 274L219 246L214 188Z" fill="white"/>
<path d="M445.274 92.4C450.785 94.8 456.297 96 462.91 96C487.16 96 507 74.4 507 48C507 21.6 487.16 0 462.91 0C441.968 0 423.229 16.8 419.923 38.4C396.775 37.2 373.628 31.2 352.686 19.2C340.561 13.2 328.436 12 316.312 16.8C301.982 22.8 292.062 33.6 285.449 48L234.745 169.2C229.234 170.4 224.825 172.8 220.416 175.2C209.394 182.4 201.678 195.6 199.474 211.2C196.167 237.6 210.496 262.8 232.541 268.8L256.79 276C284.346 284.4 313.005 288 341.663 288C370.322 288 398.98 284.4 426.536 276L450.785 268.8C473.933 262.8 488.262 237.6 483.853 211.2C481.648 196.8 473.933 183.6 462.91 175.2C458.501 172.8 454.092 170.4 449.683 169.2L418.82 114C428.741 108 437.559 100.8 445.274 92.4ZM462.91 24C475.035 24 484.955 34.8 484.955 48C484.955 61.2 475.035 72 462.91 72C450.785 72 440.865 61.2 440.865 48C440.865 34.8 450.785 24 462.91 24ZM462.91 214.8C465.115 229.2 457.399 242.4 445.274 246L421.025 253.2C369.219 267.6 314.107 267.6 262.302 253.2L238.052 246C225.927 242.4 218.212 229.2 220.416 214.8C221.518 206.4 225.927 200.4 231.439 195.6C235.848 193.2 239.154 192 243.563 192C245.768 192 247.972 192 249.075 193.2C309.698 212.4 372.526 212.4 433.15 193.2C439.763 190.8 445.274 192 450.785 195.6C457.399 200.4 461.808 206.4 462.91 214.8Z" fill="#72bf78"/>
</svg>
